X: 126
T: Si Bheag Si Mhor
M: 3/4
L: 1/8
C: O'Carolan
K: D
Q: 1/4=116
de |: "D" f3 e d2 | "D7" (d2 e2 d2) | "G" (B4 A2) | "D" (F4 A2) | "G" (BABc d2) | "A" e4 de | "D" (f4 (3efe) | d4 (f2 |
"G" B4) (e2 | "D" A4) (d2 | "A7" F4 E2) | "D" D4 (f2 | "G" B4) e2 | "A" A4 dc | "D" (d3 edc) | d4 de :|
|: "D" f3 e d2 | "D7" (edef a2) | "G" (b4 a2) | "D" f4 ed | "A" (e4 a2) | "D" (f4 e2) |
"G" (d4 B2) | "D" A4 BA | "A7" (F4 E2) | "D" D4 (a2 | "G" B4) (e2 | "A" A4) f2 | "G" (ba)(gf)(ed) | "A7" e4 dc | "D" d3 (edc)  | d4 de :|
W: From _Irish Fiddle Tunes for Two Violins_,  compiled &
W: arranged by Deborah Greenblatt
